images/icon/uit_facebook-f.svg

<svg width="32" height="32" viewBox="0 0 32 32" fill="none" xmlns="http://www.w3.org/2000/svg">
<path d="M23.9867 2.12809C22.6417 1.98541 21.2899 1.91598 19.9374 1.92009C15.4534 1.92009 12.6667 4.77609 12.6667 9.37343V12.4948H8.90007C8.72325 12.4948 8.55368 12.565 8.42866 12.69C8.30364 12.815 8.2334 12.9846 8.2334 13.1614V18.2948C8.2334 18.4716 8.30364 18.6411 8.42866 18.7662C8.55368 18.8912 8.72325 18.9614 8.90007 18.9614H12.6667V29.2548C12.6667 29.4316 12.737 29.6011 12.862 29.7262C12.987 29.8512 13.1566 29.9214 13.3334 29.9214H18.6374C18.8142 29.9214 18.9838 29.8512 19.1088 29.7262C19.2338 29.6011 19.3041 29.4316 19.3041 29.2548V18.9614H23.0587C23.2206 18.9615 23.3769 18.9027 23.4986 18.796C23.6203 18.6893 23.699 18.5419 23.7201 18.3814L24.3827 13.2481C24.3951 13.154 24.3872 13.0584 24.3596 12.9676C24.332 12.8768 24.2853 12.7929 24.2227 12.7216C24.1601 12.6503 24.083 12.5932 23.9966 12.554C23.9101 12.5149 23.8163 12.4947 23.7214 12.4948H19.3041V9.88276C19.3041 8.58943 19.5641 8.04943 21.1814 8.04943H23.9001C24.0769 8.04943 24.2464 7.97919 24.3715 7.85417C24.4965 7.72914 24.5667 7.55957 24.5667 7.38276V2.78943C24.5668 2.62757 24.508 2.47122 24.4013 2.34953C24.2946 2.22784 24.1472 2.14914 23.9867 2.12809ZM23.2334 6.71476L21.1801 6.71609C18.3041 6.71609 17.9707 8.52409 17.9707 9.88276V13.1628C17.9707 13.3393 18.0408 13.5087 18.1655 13.6337C18.2903 13.7587 18.4595 13.8291 18.6361 13.8294H22.9641L22.4721 17.6294H18.6374C18.4606 17.6294 18.291 17.6997 18.166 17.8247C18.041 17.9497 17.9707 18.1193 17.9707 18.2961V28.5868H14.0001V18.2961C14.0001 18.1193 13.9298 17.9497 13.8048 17.8247C13.6798 17.6997 13.5102 17.6294 13.3334 17.6294H9.56807V13.8294H13.3334C13.5102 13.8294 13.6798 13.7592 13.8048 13.6342C13.9298 13.5091 14.0001 13.3396 14.0001 13.1628V9.37343C14.0001 5.54143 16.2201 3.25343 19.9374 3.25343C21.2827 3.25343 22.4974 3.32676 23.2334 3.39076V6.71476Z" fill="#011C44"/>
</svg>

<svg xmlns="http://www.w3.org/2000/svg" width="32" height="32" fill="none"><path fill="#011C44" d="M23.987 2.128a37 37 0 0 0-4.05-.208c-4.484 0-7.27 2.856-7.27 7.453v3.122H8.9a.667.667 0 0 0-.667.666v5.134a.667.667 0 0 0 .667.666h3.767v10.294a.667.667 0 0 0 .666.666h5.304a.667.667 0 0 0 .667-.666V18.96h3.755a.67.67 0 0 0 .661-.58l.663-5.133a.665.665 0 0 0-.662-.753h-4.417V9.883c0-1.294.26-1.834 1.877-1.834h2.72a.667.667 0 0 0 .666-.666V2.789a.67.67 0 0 0-.58-.66m-.754 4.587-2.053.001c-2.876 0-3.21 1.808-3.21 3.167v3.28a.667.667 0 0 0 .666.666h4.328l-.492 3.8h-3.835a.667.667 0 0 0-.666.667v10.29H14v-10.29a.667.667 0 0 0-.668-.667H9.568v-3.8h3.765a.667.667 0 0 0 .667-.666v-3.79c0-3.832 2.22-6.12 5.937-6.12 1.346 0 2.56.074 3.296.138z"/></svg>
